X:52
T: Der betruegerische Freier
N: Q2042F
O: Mitteleuropa, Frankreich
N: Franzoesische Fassung der Ballade.
R: Ballade, Braut - Werbung, Betrug
M: 6/8
L: 1/8
K: A
E | A2=cB2A | A2GE2
E | A2=ce2d | =cB
G | A2=cB2A | A2GE2
E | A2=ce2d | =cB2
cdBG2B | A3-Az

